public/img/Logo/Mainlogo.svg

<svg width="253" height="159" viewBox="0 0 253 159" fill="none" xmlns="http://www.w3.org/2000/svg">
<g clip-path="url(#clip0_591_19)">
<path d="M252.28 0H0V158.74H252.28V0Z" fill="white"/>
<path d="M147.17 38.3801L144.17 35.9001C142.97 34.9101 141.47 34.3701 139.91 34.3701H110.36C107.7 34.3701 105.3 35.9501 104.24 38.3801L78.4798 97.5501C72.8198 110.55 82.3498 125.09 96.5298 125.09C104.36 125.09 111.45 120.45 114.58 113.26L132.27 72.6101C134.04 68.5401 139.22 67.3001 142.65 70.1301L205.33 121.95C207.78 123.98 210.86 125.09 214.04 125.09C226.86 125.09 232.63 109.04 222.75 100.87L147.16 38.3801H147.17Z" fill="#E4EFFC"/>
<path d="M62.7696 88.29H37.3097C34.1782 88.29 31.6396 90.8286 31.6396 93.96V119.42C31.6396 122.551 34.1782 125.09 37.3097 125.09H62.7696C65.9011 125.09 68.4397 122.551 68.4397 119.42V93.96C68.4397 90.8286 65.9011 88.29 62.7696 88.29Z" fill="#E4EFFC"/>
</g>
<defs>
<clipPath id="clip0_591_19">
<rect width="252.28" height="158.74" fill="white"/>
</clipPath>
</defs>
</svg>

<svg xmlns="http://www.w3.org/2000/svg" width="253" height="159" fill="none"><g clip-path="url(#a)"><path fill="#fff" d="M252.28 0H0v158.74h252.28z"/><path fill="#E4EFFC" d="m147.17 38.38-3-2.48a6.68 6.68 0 0 0-4.26-1.53h-29.55c-2.66 0-5.06 1.58-6.12 4.01L78.48 97.55c-5.66 13 3.87 27.54 18.05 27.54 7.83 0 14.92-4.64 18.05-11.83l17.69-40.65c1.77-4.07 6.95-5.31 10.38-2.48l62.68 51.82a13.65 13.65 0 0 0 8.71 3.14c12.82 0 18.59-16.05 8.71-24.22l-75.59-62.49zM62.77 88.29H37.31a5.67 5.67 0 0 0-5.67 5.67v25.46a5.67 5.67 0 0 0 5.67 5.67h25.46a5.67 5.67 0 0 0 5.67-5.67V93.96a5.67 5.67 0 0 0-5.67-5.67"/></g><defs><clipPath id="a"><path fill="#fff" d="M0 0h252.28v158.74H0z"/></clipPath></defs></svg>
